X:1
T:Title
%%score ( 1 2 ) ( 3 4 )
L:1/8
Q:1/4=140
M:3/4
K:Eb
V:1 treble nm="Grand Piano, Soprano"
V:2 treble 
V:3 bass nm="Choir Pad, Hail! Blessèd Christmas Day"
V:4 bass 
V:1
 E2 G2 B2 | [Ge]4 [Gd]2 | [Ac]2 [EA]2 [Ec]2 | [EB]4 [EB]2 | [GB]4 [FA]2 | [DF]2 [EG]2 [FA]2 | %6
 [Ec]4 [EB]2 | [EB]4 [_DG]2 | [DF]4 [DB]2 | c2 z2 z2 | [DB]6 | [FB]2 [FB]2 [FB]2 | d2 z2 z2 | %13
 [Ee]4 [GB]2 | [EG]4 E2 | [FB]4 [FB]2 | d2 z2 z2 | [Ge]2 [EG]2 [E=A]2 | [DB]4 E2 | E2 G2 [EB]2 | %20
 [Ge]4 [Gd]2 | [Ac]2 [EA]2 [Ec]2 | [EB]6 | [Ge]2 [Ae]2 [Be]2 | [ce]4 [Ac]2 | [GB]4 [DA]2 | [EG]6 | %27
 [Ge]2 [Ae]2 [Be]2 | z2 z2 .c2 | B4 z2 | [EB]6- | [EB]4 z2 |] %32
V:2
 x6 | x6 | x6 | x6 | x6 | x6 | x6 | x6 | x6 | E2- [EG]2 [E=A]2 | x6 | x6 | F2- [Fc]2 [FB]2 | x6 | %14
 x6 | x6 | F2- [Fc]2 [FB]2 | x6 | x6 | x6 | x6 | x6 | x6 | x6 | x6 | x6 | x6 | x6 | [ce]4 E-[EA] | %29
 E2 DE [FB]2 | x6 | x6 |] %32
V:3
 G,2 B,2 G,2 | [E,B,]4 [E,B,]2 | [E,C]4 [E,A,]2 | [E,G,]4 [E,G,]2 | [B,,B,]4 [B,,B,]2 | %5
w: By~Lewis~Henry~Redner * *|||||
 [B,,B,]4 [B,,B,]2 | [E,A,]4 [E,G,]2 | [E,G,]4 [=E,B,]2 | [F,B,]4 [F,B,]2 | =A,2 B,2 [F,C]2 | %10
w: |||||
 [B,,B,]6 | [A,D]2 [A,D]2 [A,D]2 | B,2 C2 [A,D]2 | [G,E]2 G,2 [E,B,]2 | [E,B,]4 [G,B,]2 | %15
w: |||||
 [A,D]4 [A,D]2 | B,2 C2 [A,D]2 | [G,B,]2 [C,C]2 [F,C]2 | [B,,B,]4 [E,G,]2 | G,2 z2 z2 | %20
w: |||||
 [E,B,]4 [E,B,]2 | [E,C]4 [E,A,]2 | [E,G,]6 | [E,B,]2 [F,B,]2 [G,B,]2 | A,4 [A,E]2 | %25
w: |||||
 [B,E]2 B,2 [B,,B,]2 | [E,B,]6 | [E,B,]2 [F,B,]2 [G,B,]2 | A,4 [A,,A,]2 | G,2 z2 z2 | [E,G,]6- | %31
w: ||||||
 [E,G,]4 z2 |] %32
w: |
V:4
 E,6 | x6 | x6 | x6 | x6 | x6 | x6 | x6 | x6 | F,4 z2 | x6 | x6 | A,4 z2 | x6 | x6 | x6 | A,4 z2 | %17
 x6 | x6 | E,2- [E,B,]2 [E,G,]2 | x6 | x6 | x6 | x6 | x6 | x6 | x6 | x6 | x6 | %29
 B,,2- [B,,-F,][B,,G,] [B,,A,]2 | x6 | x6 |] %32

